X:915
T:Mazurka
T:efter Pelle Fors
R:Mazurka
O:Vikbolandet, Östergötland
S:efter Pelle Fors
B:Låtar efter Pelle Fors
Z:Björn Ek 2009-01-02
M:3/4
L:1/8
K:G
%
|:G2 (BG) (Bd)|d2 cB A2  |a2 (gf)(ef)|g2 fe d2 |
G2 BG Bd      |d2 (cB) A2|a2 (gf)(ef)|g2 G2 z2:|
%
|:b>a g2 B2|c>d e2 A2|A>B (cd) (ef)|g2 fe d2|
b>a g2 B2|c>d e2 A2|A>B (cd) (ef)|g2 G2 z2:|
%
(:musicend:)

(:music:)
